X:1
T:Coldrey, 76.76.77
T:Coldrey, 76.76.77
T:Henry Thomas Smart, 1867
T:Public Domain Courtesy of the Cyber Hymnal™
C:Henry Thomas Smart, 1867
Z:Public Domain
Z:Courtesy of the Cyber Hymnal™
%%score ( 1 2 ) ( 3 4 )
L:1/8
Q:1/4=108
M:4/4
K:C
V:1 treble 
V:2 treble 
V:3 bass 
V:4 bass 
V:1
 [Ec]2 [FB]2 [Gc]2 G2 | [GA]2 [FA]2 [EG]4 | E2 [DG]2 [Ec]2 [Ge]2 | d4 [Ec]4 | %4
 [Ec]2 [DB]2 [Gc]2 G2 | [CA]2 [FA]2 [EG]4 | E2 [DG]2 c2 [GB]2 | A4 G4 | [GB]2 [GB]2 [Gc]2 [EG]2 | %9
 [FA]2 [E_B]2 [FA]4 | [FA]2 [Fc]2 [Af]2 [Ge]2 | [Ad]2 d2 [Ec]4 |] %12
V:2
 x6 G2 | x8 | E2 x6 | (A2 GF) x4 | x6 (ED) | x8 | E2 (E^F) x4 | (G2 ^F2) G4 | x8 | x8 | x8 | %11
 x2 (GF) x4 |] %12
V:3
 [C,G,]2 [D,G,]2 [E,G,]2 [E,C]2 | [F,C]2 [A,,C]2 [C,C]4 | C2 [B,D]2 [A,C]2 [G,C]2 | %3
 [F,C]2 [G,B,]2 [C,C]4 | [C,G,]2 G,2 [E,G,]2 (CB,) | [F,A,]2 C2 [C,C]4 | C2 [B,D]2 [A,C]2 [E,E]2 | %7
 ([C,E]2 DC) [G,,G,B,]4 | [G,D]2 [F,D]2 [E,C]2 [_B,C]2 | [A,C]2 [G,C]2 [F,C]4 | %10
 [F,C]2 A,2 (A,B,) [E,C]2 | [F,C]2 [G,B,]2 [C,C]4 |] %12
V:4
 x8 | x8 | C2 x6 | x8 | x2 (G,F,) x C,2 x | x2 (A,,B,,) x4 | C2 x6 | x2 D,2 x4 | x8 | x8 | %10
 x2 (F,E,) D,2 x2 | x8 |] %12

